packages/components/Atoms/Icon/assets/img/rpl_icon_pptx.svg

<svg width="20" height="20" viewBox="0 0 20 20" overflow="visible" xmlns="http://www.w3.org/2000/svg">
  <path fill-rule="evenodd" clip-rule="evenodd" d="M10 5V2.824L12.176 5H10ZM10.003 0H1C0.447 0 0 0.447 0 1V19C0 19.553 0.447 20 1 20H14C14.553 20 15 19.553 15 19V16H13V18H2V2H8V6C8 6.553 8.447 7 9 7H13V9H15V4.997L10.003 0Z"
    fill="inherit" />
  <path fill-rule="evenodd" clip-rule="evenodd" d="M5.24999 11.1259H4.55699V12.1339H5.24999C5.58599 12.1339 5.78199 11.8889 5.78199 11.6299C5.78199 11.3709 5.58599 11.1259 5.24999 11.1259ZM5.30699 13.2329H4.55699V15.0129H3.33099V10.0259H5.30699C6.41299 10.0259 7.00799 10.8109 7.00799 11.6299C7.00799 12.4489 6.41299 13.2329 5.30699 13.2329Z"
    fill="inherit" />
  <path fill-rule="evenodd" clip-rule="evenodd" d="M9.499 11.1259H8.806V12.1339H9.499C9.835 12.1339 10.031 11.8889 10.031 11.6299C10.031 11.3709 9.835 11.1259 9.499 11.1259ZM9.556 13.2329H8.806V15.0129H7.58V10.0259H9.556C10.662 10.0259 11.257 10.8109 11.257 11.6299C11.257 12.4489 10.662 13.2329 9.556 13.2329Z"
    fill="inherit" />
  <path fill-rule="evenodd" clip-rule="evenodd" d="M14.127 11.1181V15.0131H12.9V11.1181H11.675V10.0261H15.353V11.1181H14.127Z"
    fill="inherit" />
  <path fill-rule="evenodd" clip-rule="evenodd" d="M18.5996 15.0127L17.7806 13.4787L16.9606 15.0127H15.5596L17.1146 12.4557L15.6586 10.0267H17.0516L17.7806 11.4337L18.5086 10.0267H19.9026L18.4456 12.4557L19.9996 15.0127H18.5996Z"
    fill="inherit" />
</svg>

<svg width="20" height="20" overflow="visible" xmlns="http://www.w3.org/2000/svg"><path fill-rule="evenodd" clip-rule="evenodd" d="M10 5V2.824L12.176 5H10zm.003-5H1a1 1 0 00-1 1v18a1 1 0 001 1h13a1 1 0 001-1v-3h-2v2H2V2h6v4a1 1 0 001 1h4v2h2V4.997L10.003 0z" fill="inherit"/><path fill-rule="evenodd" clip-rule="evenodd" d="M5.25 11.126h-.693v1.008h.693c.336 0 .532-.245.532-.504 0-.26-.196-.504-.532-.504zm.057 2.107h-.75v1.78H3.331v-4.987h1.976c1.106 0 1.701.785 1.701 1.604 0 .819-.595 1.603-1.701 1.603zM9.499 11.126h-.693v1.008h.693c.336 0 .532-.245.532-.504 0-.26-.196-.504-.532-.504zm.057 2.107h-.75v1.78H7.58v-4.987h1.976c1.106 0 1.701.785 1.701 1.604 0 .819-.595 1.603-1.701 1.603zM14.127 11.118v3.895H12.9v-3.895h-1.225v-1.092h3.678v1.092h-1.226zM18.6 15.013l-.82-1.534-.82 1.534h-1.4l1.555-2.557-1.456-2.43h1.393l.729 1.408.728-1.407h1.394l-1.457 2.429L20 15.013h-1.4z" fill="inherit"/></svg>
